X:45
T: Nincsen kedvem mert a fecske elvitte
O: Onest (Bákó), 1929
Q: "Guisto" 1/4=168
M:4/4
L:1/4
K:Bb
B/B/A/G/ F/F/G/A/ | B c F z | 
B/B/A/G/ F/G/F/E/ | G F C z | 
D B, C B, | F/F/=E/F/ | G F  C  z | 
F/F/G/A/ B/D/F/E/ | D<C B, z |  

